X: 1
T: Lovely Occasion
M: 3/4
L: 1/8
R: waltz
K: Amaj
A c>e|:a2 (3gfe f>e|e2c3B|c2 (3(cBA) Be|f>g f<e a2|
c3B A>F|B3A Bc|d>c d<e fe|1a3A ce:|2a4z2||
|:A,>C D<E AB|c>B A4|a>g f<e ed|d>c B<A GF|
E>F G<A ed|d>c B4|E>D E<G AB|B>c d4|
B>c B<A GF|E>F G<A Bc|d>c d<e fg|a>g f<e ed|
d>c B<A GF|E>F G<A Bc|d>c d<e fg|1a4A2:|2a4|]
